svg/alarm_multiple.svg

<svg xmlns="http://www.w3.org/2000/svg" viewBox="0 0 24 24"><path d="M9.29 3.25 5.16 6.72 4 5.34l4.14-3.47zM22 5.35l-1.16 1.38-4.14-3.48 1.16-1.38zM13 4a8 8 0 0 1 8 8 8 8 0 0 1-8 8 8 8 0 0 1-8-8 8 8 0 0 1 8-8m0 2a6 6 0 0 0-6 6 6 6 0 0 0 6 6 6 6 0 0 0 6-6 6 6 0 0 0-6-6m-1 1.5h1.5v4.53l3.22 1.47-.62 1.36L12 13zM1 14c0-2.5 1.13-4.7 2.91-6.17A10 10 0 0 0 3 12l.06 1.13L3 14c0 2.28 1.27 4.26 3.14 5.28 1.3 1.22 2.93 2.11 4.75 2.5-.61.14-1.24.22-1.89.22a8 8 0 0 1-8-8"/></svg>

<?xml version="1.0" encoding="UTF-8"?><!DOCTYPE svg PUBLIC "-//W3C//DTD SVG 1.1//EN" "http://www.w3.org/Graphics/SVG/1.1/DTD/svg11.dtd"><svg xmlns="http://www.w3.org/2000/svg" xmlns:xlink="http://www.w3.org/1999/xlink" version="1.1" id="mdi-alarm-multiple" width="24" height="24" viewBox="0 0 24 24"><path d="M9.29,3.25L5.16,6.72L4,5.34L8.14,1.87L9.29,3.25M22,5.35L20.84,6.73L16.7,3.25L17.86,1.87L22,5.35M13,4A8,8 0 0,1 21,12A8,8 0 0,1 13,20A8,8 0 0,1 5,12A8,8 0 0,1 13,4M13,6A6,6 0 0,0 7,12A6,6 0 0,0 13,18A6,6 0 0,0 19,12A6,6 0 0,0 13,6M12,7.5H13.5V12.03L16.72,13.5L16.1,14.86L12,13V7.5M1,14C1,11.5 2.13,9.3 3.91,7.83C3.33,9.1 3,10.5 3,12L3.06,13.13L3,14C3,16.28 4.27,18.26 6.14,19.28C7.44,20.5 9.07,21.39 10.89,21.78C10.28,21.92 9.65,22 9,22A8,8 0 0,1 1,14Z" /></svg>
